X: 158
T:Merry Plowman,The. HSJJ.159
M:2/4
L:1/16
S:HSJ Jackson,Wyresdale,Lancs.1823
R:Reel
O:England
A:Lancashire
H:1823
Z:vmp.Chris Partington.
K:G
G2|B2d2d2e2|d2B2A2G2|B2d2d2e2|d4G2A2|B2d2d2e2|d2B2A2G2|!(Bcd2) efge|d4G2
|
|ef|gfed edcB|c2B2 (A2df)|gfed BcdB|!g4d2ef|(gfed) (edcB) g2B2A2c2|B2cd
efge|d4G2|]
